svg/map/aiming_line.svg

<?xml version="1.0" encoding="UTF-8"?>
<svg width="24px" height="24px" viewBox="0 0 24 24" version="1.1" xmlns="http://www.w3.org/2000/svg" xmlns:xlink="http://www.w3.org/1999/xlink">
    <title>aiming_line</title>
    <g id="页面-1" stroke="none" stroke-width="1" fill="none" fill-rule="evenodd">
        <g id="Map" transform="translate(-528.000000, 0.000000)" fill-rule="nonzero">
            <g id="aiming_line" transform="translate(528.000000, 0.000000)">
                 <path d="M24,0 L24,24 L0,24 L0,0 L24,0 Z M12.5934901,23.257841 L12.5819402,23.2595131 L12.5108777,23.2950439 L12.4918791,23.2987469 L12.4918791,23.2987469 L12.4767152,23.2950439 L12.4056548,23.2595131 C12.3958229,23.2563662 12.3870493,23.2590235 12.3821421,23.2649074 L12.3780323,23.275831 L12.360941,23.7031097 L12.3658947,23.7234994 L12.3769048,23.7357139 L12.4804777,23.8096931 L12.4953491,23.8136134 L12.4953491,23.8136134 L12.5071152,23.8096931 L12.6106902,23.7357139 L12.6232938,23.7196733 L12.6232938,23.7196733 L12.6266527,23.7031097 L12.609561,23.275831 C12.6075724,23.2657013 12.6010112,23.2592993 12.5934901,23.257841 L12.5934901,23.257841 Z M12.8583906,23.1452862 L12.8445485,23.1473072 L12.6598443,23.2396597 L12.6498822,23.2499052 L12.6498822,23.2499052 L12.6471943,23.2611114 L12.6650943,23.6906389 L12.6699349,23.7034178 L12.6699349,23.7034178 L12.678386,23.7104931 L12.8793402,23.8032389 C12.8914285,23.8068999 12.9022333,23.8029875 12.9078286,23.7952264 L12.9118235,23.7811639 L12.8776777,23.1665331 C12.8752882,23.1545897 12.8674102,23.1470016 12.8583906,23.1452862 L12.8583906,23.1452862 Z M12.1430473,23.1473072 C12.1332178,23.1423925 12.1221763,23.1452606 12.1156365,23.1525954 L12.1099173,23.1665331 L12.0757714,23.7811639 C12.0751323,23.7926639 12.0828099,23.8018602 12.0926481,23.8045676 L12.108256,23.8032389 L12.3092106,23.7104931 L12.3186497,23.7024347 L12.3186497,23.7024347 L12.3225043,23.6906389 L12.340401,23.2611114 L12.337245,23.2485176 L12.337245,23.2485176 L12.3277531,23.2396597 L12.1430473,23.1473072 Z" id="MingCute" fill-rule="nonzero"></path>
                <path d="M12,2 C12.5523,2 13,2.44772 13,3 L13,3.05493 C17.1716,3.51608 20.4839,6.82838 20.9451,11 L21,11 C21.5523,11 22,11.4477 22,12 C22,12.5523 21.5523,13 21,13 L20.9451,13 C20.4839,17.1716 17.1716,20.4839 13,20.9451 L13,21 C13,21.5523 12.5523,22 12,22 C11.4477,22 11,21.5523 11,21 L11,20.9451 C6.82838,20.4839 3.51608,17.1716 3.05493,13 L3,13 C2.44772,13 2,12.5523 2,12 C2,11.4477 2.44772,11 3,11 L3.05493,11 C3.51608,6.82838 6.82838,3.51608 11,3.05493 L11,3 C11,2.44772 11.4477,2 12,2 Z M13,5.07089 L13,6 C13,6.55228 12.5523,7 12,7 C11.48715,7 11.0644908,6.61395571 11.0067275,6.11662025 L11,6 L11,5.07089 C8.01946806,5.49721917 5.64461165,7.80112549 5.11200181,10.746038 L5.07089,11 L6,11 C6.55228,11 7,11.4477 7,12 C7,12.51285 6.61395571,12.9355092 6.11662025,12.9932725 L6,13 L5.07089,13 C5.49721917,15.9805417 7.80112549,18.3553889 10.746038,18.887989 L11,18.9291 L11,18 C11,17.4477 11.4477,17 12,17 C12.51285,17 12.9355092,17.386027 12.9932725,17.8833761 L13,18 L13,18.9291 C15.9805417,18.5027806 18.3553889,16.198884 18.887989,13.2539628 L18.9291,13 L18,13 C17.4477,13 17,12.5523 17,12 C17,11.48715 17.386027,11.0644908 17.8833761,11.0067275 L18,11 L18.9291,11 C18.5027806,8.01946806 16.198884,5.64461165 13.2539628,5.11200181 L13,5.07089 Z M12,10.5 C12.8284,10.5 13.5,11.1716 13.5,12 C13.5,12.8284 12.8284,13.5 12,13.5 C11.1716,13.5 10.5,12.8284 10.5,12 C10.5,11.1716 11.1716,10.5 12,10.5 Z" id="形状" fill="#09244B"></path>
            </g>
        </g>
    </g>
</svg>

<svg xmlns="http://www.w3.org/2000/svg" width="24" height="24"><g fill="none" fill-rule="nonzero"><path d="M24 0v24H0V0h24ZM12.593 23.258l-.011.002-.071.035-.02.004-.014-.004-.071-.035c-.01-.004-.019-.001-.024.005l-.004.01-.017.428.005.02.01.013.104.074.015.004.012-.004.104-.074.012-.016.004-.017-.017-.427c-.002-.01-.009-.017-.017-.018Zm.265-.113-.013.002-.185.093-.01.01-.003.011.018.43.005.012.008.007.201.093c.012.004.023 0 .029-.008l.004-.014-.034-.614c-.003-.012-.01-.02-.02-.022Zm-.715.002a.023.023 0 0 0-.027.006l-.006.014-.034.614c0 .012.007.02.017.024l.015-.002.201-.093.01-.008.004-.011.017-.43-.003-.012-.01-.01-.184-.092Z"/><path fill="#09244B" d="M12 2a1 1 0 0 1 1 1v.055A9.004 9.004 0 0 1 20.945 11H21a1 1 0 1 1 0 2h-.055A9.004 9.004 0 0 1 13 20.945V21a1 1 0 1 1-2 0v-.055A9.004 9.004 0 0 1 3.055 13H3a1 1 0 1 1 0-2h.055A9.004 9.004 0 0 1 11 3.055V3a1 1 0 0 1 1-1Zm1 3.07V6a1 1 0 0 1-1.993.117L11 6v-.93a7.006 7.006 0 0 0-5.888 5.676L5.071 11H6a1 1 0 0 1 .117 1.993L6 13h-.93a7.006 7.006 0 0 0 5.676 5.888l.254.041V18a1 1 0 0 1 1.993-.117L13 18v.93a7.006 7.006 0 0 0 5.888-5.676l.041-.254H18a1 1 0 0 1-.117-1.993L18 11h.93a7.006 7.006 0 0 0-5.676-5.888L13 5.071Zm-1 5.43a1.5 1.5 0 1 1 0 3 1.5 1.5 0 0 1 0-3Z"/></g></svg>
